X: 37667
T: Snowy Evening
R: waltz
M: 3/4
K: Gmajor
D2|"G" B3 (c d2)|"D" A3 (B c2)|"Em" G3 (A B2)|"G" D4 (D2|"C" E3 D) EF|"G" (GA B2) G2|
"D" D6-|"D7" D4 D2|"G" B3 (c d)B|"D" A3 (B c)A|"Em" G2 A2 B2|"G" D4 (D2|"C" E2) G3 E|
"D7" D G3 F2|"G" G6-|G4 E2|"G" B2 B3 B|"Bm" d B3 A2|"C" G3 G AB|"G" D4 D2|
"C" E3 F GA|"G" B2 d2 cB|"Em" B6{cB}|"D" A4 D2|"G" B2 B3 B|"Bm" d B3 A2|"C" G2 A2 B2|
"G" D4 D2|"C" E2 C3 E|"D7" D G3 F2|"G" G6-|G4 A2|"Em" B3 e f2|"C" g2 f2 e2|
"G" d3 e dB|"Bm" d4 B2|"Am" A3 A A2|"Em" B2 A2 G2|"C" E6{GE}|"D7" D4 D2|"G" B2 B3 B|
"Bm" d B3 A2|"C" G3 A B2|"G" D4 D2|"C" E2 C3 E|"D7" D G3 F2|"G" G6-|G4:|

